apex/img/step-item-icon3.svg

<svg width="111" height="111" viewBox="0 0 111 111" fill="none" xmlns="http://www.w3.org/2000/svg">
<path d="M110.07 22.9314C110.07 19.132 106.99 16.052 103.191 16.052H94.0183V20.6382H103.191C104.457 20.6382 105.484 21.6649 105.484 22.9314V84.1328L94.0551 72.7038C99.5485 62.9028 98.1281 50.2707 89.7922 41.9346C89.6736 41.816 89.553 41.6994 89.4321 41.5834V2.2932C89.4321 1.02675 88.4054 0 87.1389 0H38.9832C38.8606 0 38.7396 0.0124689 38.6201 0.0316022C38.5938 0.0356869 38.5674 0.0382666 38.5414 0.0434262C38.5068 0.0503056 38.4728 0.0601947 38.4384 0.068579C38.3997 0.0780381 38.3606 0.0862074 38.3223 0.0978164C38.2976 0.105341 38.2735 0.11523 38.249 0.123399C38.2024 0.139093 38.1557 0.154356 38.1099 0.173275C38.0914 0.181014 38.0736 0.190473 38.0553 0.198643C38.0052 0.220786 37.9551 0.243144 37.9065 0.268941C37.8893 0.277971 37.8734 0.288935 37.8565 0.298609C37.8083 0.325696 37.7604 0.352999 37.7139 0.383956C37.6888 0.400725 37.6653 0.419858 37.641 0.437486C37.6047 0.463929 37.5677 0.489082 37.5325 0.517889C37.4734 0.56626 37.4164 0.617641 37.362 0.672031L21.31 16.7238C20.8798 17.1538 20.6382 17.737 20.6382 18.345V64.2075H16.052V68.7939H22.9314H25.2246H47.3586C50.9157 78.7439 60.4239 85.8643 71.5965 85.8641C76.0427 85.8639 80.3696 84.7124 84.1804 82.576L91.029 89.4321H6.8794C5.61294 89.4321 4.58619 88.4054 4.58619 87.1389V22.9314C4.58619 21.6649 5.61294 20.6382 6.8794 20.6382H16.052V16.052H6.8794C3.08003 16.052 0 19.132 0 22.9314V87.1391C0 90.9385 3.08003 94.0185 6.8794 94.0185H40.0179C38.9023 105.042 29.7555 105.473 28.6641 105.484C27.3976 105.484 26.3709 106.511 26.3709 107.777C26.3709 109.044 27.3976 110.071 28.6641 110.071H81.406C82.6725 110.071 83.6992 109.044 83.6992 107.777C83.6992 106.511 82.6725 105.484 81.406 105.484C80.9748 105.484 71.2177 105.345 70.0544 94.0185H95.6101L98.1526 96.5639C99.4608 97.8747 101.238 98.6092 103.09 98.6047C104.942 98.6015 106.717 97.8585 108.02 96.5409C109.35 95.2076 110.028 93.471 110.058 91.7253H110.07V22.9314ZM70.3738 105.484H39.6965C42.6944 102.361 44.4594 98.2902 44.7204 94.0185H65.3502C65.6109 98.2902 67.3759 102.361 70.3738 105.484ZM25.2244 64.2078V19.2943L36.69 7.82875V16.052H32.1038V20.6382H38.9832C40.2496 20.6382 41.2764 19.6114 41.2764 18.345V4.58619H84.8459V38.071C80.8768 35.6871 76.3024 34.3968 71.5949 34.397C67.8033 34.397 64.2035 35.2176 60.9626 36.6902H32.1038V41.2764H54.0841C51.9631 43.2473 50.1753 45.5715 48.814 48.1558H32.1038V52.742H46.9403C46.2399 55.0827 45.8617 57.5625 45.8619 60.1311C45.8619 61.5183 45.9733 62.8796 46.1846 64.2075H25.2244V64.2078ZM50.4516 60.133C50.45 48.4537 59.917 38.9847 71.5962 38.9832C77.2077 38.9668 82.5923 41.1962 86.5497 45.1746C90.5165 49.1402 92.7452 54.519 92.7461 60.1278C92.7467 65.9201 90.4178 71.1678 86.6462 74.9875L86.4521 75.1815C82.6338 78.9497 77.3898 81.2768 71.6014 81.2777C59.9219 81.2792 50.4528 71.8123 50.4516 60.133ZM91.4846 76.6433L94.8654 80.0239L91.4783 83.4109L88.0975 80.0304L91.4846 76.6433ZM101.398 93.3304L94.7213 86.6539L98.1084 83.2669L104.785 89.9434C105.249 90.4086 105.481 91.0165 105.484 91.6256V91.6482C105.481 92.2572 105.249 92.8652 104.785 93.3304C103.849 94.2636 102.334 94.2636 101.398 93.3304Z" fill="#E5A132"/>
<path d="M43 48.5643L46.2426 51.8068C50.8432 47.2176 58.2901 47.2176 62.8907 51.8068L66.1333 48.5643C59.7406 42.1871 49.3927 42.1871 43 48.5643Z" fill="#E5A132"/>
<path d="M49 73.3799V82.5525C49 83.8189 50.0267 84.8457 51.2932 84.8457H60.4656V80.2595H53.5862V73.3801H49V73.3799Z" fill="#E5A132"/>
<path d="M57.5862 80.2596H53V84.8458H57.5862V80.2596Z" fill="#E5A132"/>
<path d="M67.9663 25.2244H22.1038V29.8106H67.9663V25.2244Z" fill="#E5A132"/>
</svg>

<svg width="111" height="111" fill="none" xmlns="http://www.w3.org/2000/svg"><path d="M110.07 22.931a6.88 6.88 0 00-6.879-6.879h-9.173v4.586h9.173a2.293 2.293 0 012.293 2.293v61.202l-11.429-11.43c5.493-9.8 4.073-22.432-4.263-30.768a19.92 19.92 0 00-.36-.352V2.293A2.293 2.293 0 0087.14 0H38.983c-.122 0-.243.012-.363.032-.026.004-.053.006-.079.011-.034.007-.068.017-.103.026-.038.009-.077.017-.116.029-.024.007-.049.017-.073.025-.047.016-.093.031-.14.05L38.056.2c-.05.022-.1.044-.148.07-.018.009-.034.02-.05.03a2.196 2.196 0 00-.143.085l-.073.053c-.036.027-.073.052-.108.08-.06.05-.117.1-.171.155L21.31 16.724a2.292 2.292 0 00-.672 1.621v45.862h-4.586v4.587h31.307c3.557 9.95 13.065 17.07 24.238 17.07a25.73 25.73 0 0012.583-3.288l6.849 6.856H6.879a2.293 2.293 0 01-2.293-2.293V22.93a2.293 2.293 0 012.293-2.293h9.173v-4.586H6.879A6.88 6.88 0 000 22.932v64.207c0 3.8 3.08 6.88 6.88 6.88h33.138c-1.116 11.023-10.262 11.454-11.354 11.465a2.293 2.293 0 000 4.587h52.742a2.294 2.294 0 000-4.587c-.431 0-10.188-.139-11.352-11.465H95.61l2.543 2.545a6.952 6.952 0 004.937 2.04 6.951 6.951 0 004.93-2.063 6.965 6.965 0 002.038-4.816h.012V22.931zm-39.696 82.553H39.697a18.156 18.156 0 005.023-11.465h20.63a18.154 18.154 0 005.024 11.465zm-45.15-41.276V19.294L36.69 7.83v8.223h-4.586v4.586h6.88a2.293 2.293 0 002.292-2.293V4.586h43.57v33.485a25.732 25.732 0 00-13.251-3.674c-3.792 0-7.391.82-10.632 2.293h-28.86v4.586h21.981a25.83 25.83 0 00-5.27 6.88h-16.71v4.586H46.94c-.7 2.34-1.078 4.82-1.078 7.39 0 1.386.111 2.748.323 4.075h-20.96zm25.228-4.075c-.002-11.68 9.465-21.148 21.144-21.15a21.005 21.005 0 0114.954 6.192 21.148 21.148 0 016.196 14.953 21.08 21.08 0 01-6.1 14.86l-.194.194a21.08 21.08 0 01-14.85 6.096c-11.68.001-21.15-9.466-21.15-21.145zm41.033 16.51l3.38 3.38-3.387 3.388-3.38-3.38 3.387-3.388zm9.913 16.687l-6.677-6.676 3.387-3.387 6.677 6.676a2.39 2.39 0 01.699 1.683v.022a2.39 2.39 0 01-.699 1.682 2.399 2.399 0 01-3.387 0z" fill="#E5A132"/><path d="M43 48.564l3.243 3.243c4.6-4.59 12.047-4.59 16.648 0l3.242-3.243c-6.392-6.377-16.74-6.377-23.133 0zm6 24.816v9.172a2.293 2.293 0 002.293 2.294h9.173v-4.587h-6.88V73.38H49z" fill="#E5A132"/><path d="M57.586 80.26H53v4.586h4.586V80.26zm10.38-55.036H22.104v4.587h45.862v-4.587z" fill="#E5A132"/></svg>
